assets/img/landing/logo1.svg

<?xml version="1.0" encoding="UTF-8" standalone="no"?>
<svg
   version="1.1"
   viewBox="0 0 1810 636"
   id="svg17"
   sodipodi:docname="logo1.svg"
   inkscape:version="1.3.2 (091e20e, 2023-11-25)"
   width="1810"
   height="636"
   xmlns:inkscape="http://www.inkscape.org/namespaces/inkscape"
   xmlns:sodipodi="http://sodipodi.sourceforge.net/DTD/sodipodi-0.dtd"
   xmlns="http://www.w3.org/2000/svg"
   xmlns:svg="http://www.w3.org/2000/svg">
  <defs
     id="defs17">
    <rect
       x="1102.2802"
       y="-43.687935"
       width="383.10956"
       height="265.48822"
       id="rect19" />
    <rect
       x="1035.068"
       y="117.62136"
       width="184.83356"
       height="245.32455"
       id="rect18" />
  </defs>
  <sodipodi:namedview
     id="namedview17"
     pagecolor="#ffffff"
     bordercolor="#000000"
     borderopacity="0.25"
     inkscape:showpageshadow="2"
     inkscape:pageopacity="0.0"
     inkscape:pagecheckerboard="0"
     inkscape:deskcolor="#d1d1d1"
     inkscape:zoom="0.297565"
     inkscape:cx="1209.8197"
     inkscape:cy="315.89737"
     inkscape:window-width="1312"
     inkscape:window-height="449"
     inkscape:window-x="0"
     inkscape:window-y="38"
     inkscape:window-maximized="0"
     inkscape:current-layer="svg17" />
  <path
     fill="#ffffff"
     d="m 237.81,112.62 q 10.97,-2.29 22.14,-3.94 c 66.67,-9.86 131.07,5.17 186.97,42.3 q 4.63,3.08 0.95,7.37 -13.84,16.2 -26.02,31.73 c -1.72,2.2 -4.2,2.79 -6.5,1.24 q -45.14,-30.35 -97.21,-34.19 c -44.22,-3.26 -89.1,5.52 -127.01,28.41 q -32.93,19.88 -57.83,50.53 -18.19,22.4 -29.62,51.27 c -1.46,3.68 -4.64,3.49 -8.26,2.72 q -21.53,-4.58 -40.7,-7.18 c -2.82,-0.39 -2.84,-2.1 -2.04,-4.4 q 5.47,-15.71 11.47,-27.55 42.55,-83.96 127.49,-122.54 4.55,-2.06 -0.43,-2.51 Q 170.09,124 155.6,111.27 c -27.69,-24.31 -29.62,-66.88 -3.31,-92.73 20.1,-19.74 50.27,-23.58 74.68,-9.09 17.52,10.39 29.01,28.53 30.51,49.01 q 1.93,26.37 -15.15,47.63 -2.35,2.93 -4.9,5.89 -0.76,0.88 0.38,0.64 z"
     id="path10"
     style="fill:#ececec" />
  <path
     fill="#ffffff"
     d="m 645.73,509.24 a 0.45,0.45 0 0 1 0.69,-0.14 c 30.65,26.01 64.7,44.36 104.21,52.01 q 37.8,7.32 78.7,4.72 c 21.83,-1.39 44.54,-6.38 62.96,-16.55 15.72,-8.67 28.88,-21.57 35.59,-38.04 q 8.52,-20.92 5.33,-44.09 c -1.93,-14.1 -9.69,-25.77 -21.13,-34.9 q -14.38,-11.46 -31.54,-17.7 -25.55,-9.28 -54.61,-16.11 c -30.7,-7.21 -60.56,-14.46 -90.46,-24.49 q -13.52,-4.53 -26.07,-9.97 c -27.34,-11.84 -54.49,-32.87 -66.87,-60.23 -8.26,-18.26 -10.85,-39.22 -9.77,-59.59 q 2.32,-43.77 29.4,-76.64 c 28.44,-34.54 73.8,-51.84 117.34,-56.71 69.76,-7.8 146.37,7.69 199.63,55.17 q 2.86,2.55 5.47,5.28 0.4,0.41 0.14,0.93 l -21.32,43.3 a 0.65,0.65 0 0 1 -1.01,0.2 Q 942.67,198.32 919.29,185.1 876.4,160.84 824.47,158.68 c -35.32,-1.47 -74.5,2.96 -102.89,25.12 q -33.65,26.25 -30.85,72.78 1.82,30.3 25.48,47.7 6.79,4.99 16.98,10.11 c 23.27,11.7 50.11,18.98 76.28,25.18 32.61,7.72 65.99,16.55 97.9,27.85 q 31.79,11.24 55.38,33.66 23.26,22.11 27.82,54.85 c 6.47,46.36 -8.31,89.8 -44.83,119.71 -30.52,24.99 -71.58,36.27 -110.25,39.3 q -27.59,2.17 -57.52,-0.16 C 720.31,610.28 666.59,591.94 623.9,553.85 q -0.58,-0.52 -0.23,-1.21 z"
     id="path11"
     style="fill:#ececec" />
  <path
     fill="#ffffff"
     d="m 1267.42,110.34 c 71.68,-6.86 145.81,9.86 198,60.86 q 0.39,0.39 0.15,0.88 l -21.51,43.7 a 0.34,0.35 32.4 0 1 -0.53,0.12 c -17.92,-15.24 -37.26,-28.47 -58.18,-38.34 q -33.57,-15.83 -74.1,-18.11 -36.17,-2.05 -67.59,6.55 -38.19,10.45 -65.85,39.19 c -31.23,32.45 -45.1,77.36 -49.23,121.5 q -2.96,31.58 -0.61,63.91 c 3.32,45.93 16.24,92.83 48.25,127.39 q 25.03,27.02 60.09,38.65 c 29.45,9.77 62.38,11.17 93.34,7.02 q 41.51,-5.56 78.47,-28.73 18.46,-11.57 35.26,-25.79 a 0.5,0.51 57 0 1 0.78,0.16 l 21.35,43.4 q 0.32,0.65 -0.2,1.15 c -41.15,39.9 -95.37,58.91 -152.62,61.74 -56.46,2.78 -111.36,-8.85 -156.49,-42.34 q -32.35,-24.01 -53.66,-60.94 c -27.75,-48.06 -36.57,-103.89 -35.5,-158.79 1.41,-72.24 22.52,-145.6 78.89,-193.72 34.17,-29.16 76.73,-45.17 121.49,-49.46 z"
     id="path12"
     style="fill:#ececec" />
  <path
     fill="#ffffff"
     d="m 545.87,437.81 q -0.37,-1.62 -0.86,-0.03 C 532.68,477.62 509,513.37 478.75,542.16 q -41.38,39.39 -93.73,57.92 -2.96,1.05 -3.81,-1.94 -6.17,-21.82 -12.41,-43.42 -1.22,-4.21 2.94,-5.8 44.45,-17.04 77.68,-51.55 c 29.59,-30.72 49.63,-72.15 54.55,-115.06 6.83,-59.53 -12.81,-120.67 -55.94,-162.93 q -3.3,-3.23 -0.41,-6.68 13.85,-16.51 28.52,-35.35 1.94,-2.48 4.11,-0.37 c 10.76,10.42 20.71,21.52 29.55,33.73 q 49.97,69 47.92,156.51 -0.2,8.89 -1.3,17.24 -0.61,4.68 2.51,1.14 c 13.07,-14.78 31.85,-23.92 51.74,-22.75 18.16,1.06 35.4,9.8 46.31,24.34 q 14.82,19.75 12.86,45.75 c -2.25,29.76 -28,54.57 -57.9,56.36 -32.81,1.97 -58.81,-20.04 -66.07,-51.49 z"
     id="path15"
     style="fill:#ececec" />
  <path
     fill="#ffffff"
     d="M 87.42,511.19 Q 80.26,500.61 74.58,491.32 C 42.92,439.46 31.91,379.23 41.55,318.98 c 0.37,-2.36 2.48,-2.98 4.53,-2.58 q 21.41,4.11 42.59,7.39 4.86,0.75 4.01,5.85 c -12.08,72.65 18.6,146.46 76.82,190.89 36.12,27.57 81.73,41.97 126.59,42.53 12.26,0.16 23.95,-1.11 35.68,-3.32 2.07,-0.38 3.68,0.63 4.21,2.58 q 6.59,24.18 12.49,44.15 0.91,3.08 -2.08,3.66 c -13.32,2.58 -26.29,4.21 -38.38,4.73 q -12.42,0.54 -29.73,-0.61 c -55.7,-3.7 -108.75,-25.39 -151.18,-61.37 q -1.28,-1.09 -2.72,-1.9 a 0.5,0.5 0 0 0 -0.74,0.55 q 3.11,13.87 2.19,26.51 c -2,27.36 -25.57,51.61 -52.5,55.21 -2.24,0.3 -4.25,1.94 -6.33,1.98 q -3.46,0.06 -7.2,-0.02 a 1.95,1.98 65.6 0 1 -1.17,-0.43 c -2.52,-2.04 -5.99,-1.37 -8.99,-2.1 C 18.86,625.24 -2.4,596.09 1.11,564.23 4.52,533.31 27.68,510.88 58.37,507.56 68.35,506.49 77.55,509 87,511.77 q 1.02,0.3 0.42,-0.58 z"
     id="path17"
     style="fill:#ececec" />
  <path
     d="m 1753.6848,612.47696 h -193.4347 v -50.00354 h 64.1493 V 172.64314 h -64.1493 v -50.00355 h 193.4347 v 50.00355 h -64.1492 v 389.83028 h 64.1492 z"
     id="text17"
     style="font-size:673.732px;font-family:KufiStandardGK;-inkscape-font-specification:KufiStandardGK;fill:#ececec;stroke-width:3.50902"
     aria-label="I" />
  <text
     xml:space="preserve"
     id="text18"
     style="font-size:192px;font-family:KufiStandardGK;-inkscape-font-specification:KufiStandardGK;white-space:pre;shape-inside:url(#rect18);display:inline;fill:#f9f9f9" />
  <text
     xml:space="preserve"
     id="text19"
     style="font-size:192px;font-family:KufiStandardGK;-inkscape-font-specification:KufiStandardGK;white-space:pre;shape-inside:url(#rect19);display:inline;fill:#f9f9f9" />
</svg>

<?xml version="1.0" encoding="UTF-8" standalone="no"?>
<svg
   version="1.1"
   viewBox="0.00 0.00 2423.00 636.00"
   id="svg17"
   sodipodi:docname="logo1.svg"
   inkscape:version="1.3.2 (091e20e, 2023-11-25)"
   xmlns:inkscape="http://www.inkscape.org/namespaces/inkscape"
   xmlns:sodipodi="http://sodipodi.sourceforge.net/DTD/sodipodi-0.dtd"
   xmlns="http://www.w3.org/2000/svg"
   xmlns:svg="http://www.w3.org/2000/svg">
  <defs
     id="defs17">
    <rect
       x="1102.2802"
       y="-43.687933"
       width="383.10957"
       height="265.48821"
       id="rect19" />
    <rect
       x="1035.068"
       y="117.62136"
       width="184.83356"
       height="245.32455"
       id="rect18" />
  </defs>
  <sodipodi:namedview
     id="namedview17"
     pagecolor="#ffffff"
     bordercolor="#000000"
     borderopacity="0.25"
     inkscape:showpageshadow="2"
     inkscape:pageopacity="0.0"
     inkscape:pagecheckerboard="0"
     inkscape:deskcolor="#d1d1d1"
     inkscape:zoom="0.297565"
     inkscape:cx="1209.8197"
     inkscape:cy="315.89737"
     inkscape:window-width="1312"
     inkscape:window-height="449"
     inkscape:window-x="0"
     inkscape:window-y="38"
     inkscape:window-maximized="0"
     inkscape:current-layer="svg17" />
  <path
     fill="#ffffff"
     d="   M 237.81 112.62   Q 248.78 110.33 259.95 108.68   C 326.62 98.82 391.02 113.85 446.92 150.98   Q 451.55 154.06 447.87 158.35   Q 434.03 174.55 421.85 190.08   C 420.13 192.28 417.65 192.87 415.35 191.32   Q 370.21 160.97 318.14 157.13   C 273.92 153.87 229.04 162.65 191.13 185.54   Q 158.20 205.42 133.30 236.07   Q 115.11 258.47 103.68 287.34   C 102.22 291.02 99.04 290.83 95.42 290.06   Q 73.89 285.48 54.72 282.88   C 51.90 282.49 51.88 280.78 52.68 278.48   Q 58.15 262.77 64.15 250.93   Q 106.70 166.97 191.64 128.39   Q 196.19 126.33 191.21 125.88   Q 170.09 124.00 155.60 111.27   C 127.91 86.96 125.98 44.39 152.29 18.54   C 172.39 -1.20 202.56 -5.04 226.97 9.45   C 244.49 19.84 255.98 37.98 257.48 58.46   Q 259.41 84.83 242.33 106.09   Q 239.98 109.02 237.43 111.98   Q 236.67 112.86 237.81 112.62   Z"
     id="path10"
     style="fill:#ececec" />
  <path
     fill="#ffffff"
     d="   M 645.73 509.24   A 0.45 0.45 0.0 0 1 646.42 509.10   C 677.07 535.11 711.12 553.46 750.63 561.11   Q 788.43 568.43 829.33 565.83   C 851.16 564.44 873.87 559.45 892.29 549.28   C 908.01 540.61 921.17 527.71 927.88 511.24   Q 936.40 490.32 933.21 467.15   C 931.28 453.05 923.52 441.38 912.08 432.25   Q 897.70 420.79 880.54 414.55   Q 854.99 405.27 825.93 398.44   C 795.23 391.23 765.37 383.98 735.47 373.95   Q 721.95 369.42 709.40 363.98   C 682.06 352.14 654.91 331.11 642.53 303.75   C 634.27 285.49 631.68 264.53 632.76 244.16   Q 635.08 200.39 662.16 167.52   C 690.60 132.98 735.96 115.68 779.50 110.81   C 849.26 103.01 925.87 118.50 979.13 165.98   Q 981.99 168.53 984.60 171.26   Q 985.00 171.67 984.74 172.19   L 963.42 215.49   A 0.65 0.65 0.0 0 1 962.41 215.69   Q 942.67 198.32 919.29 185.10   Q 876.40 160.84 824.47 158.68   C 789.15 157.21 749.97 161.64 721.58 183.80   Q 687.93 210.05 690.73 256.58   Q 692.55 286.88 716.21 304.28   Q 723.00 309.27 733.19 314.39   C 756.46 326.09 783.30 333.37 809.47 339.57   C 842.08 347.29 875.46 356.12 907.37 367.42   Q 939.16 378.66 962.75 401.08   Q 986.01 423.19 990.57 455.93   C 997.04 502.29 982.26 545.73 945.74 575.64   C 915.22 600.63 874.16 611.91 835.49 614.94   Q 807.90 617.11 777.97 614.78   C 720.31 610.28 666.59 591.94 623.90 553.85   Q 623.32 553.33 623.67 552.64   L 645.73 509.24   Z"
     id="path11"
     style="fill:#ececec" />
  <path
     fill="#ffffff"
     d="   M 1267.42 110.34   C 1339.10 103.48 1413.23 120.20 1465.42 171.20   Q 1465.81 171.59 1465.57 172.08   L 1444.06 215.78   A 0.35 0.34 -57.6 0 1 1443.53 215.90   C 1425.61 200.66 1406.27 187.43 1385.35 177.56   Q 1351.78 161.73 1311.25 159.45   Q 1275.08 157.40 1243.66 166.00   Q 1205.47 176.45 1177.81 205.19   C 1146.58 237.64 1132.71 282.55 1128.58 326.69   Q 1125.62 358.27 1127.97 390.60   C 1131.29 436.53 1144.21 483.43 1176.22 517.99   Q 1201.25 545.01 1236.31 556.64   C 1265.76 566.41 1298.69 567.81 1329.65 563.66   Q 1371.16 558.10 1408.12 534.93   Q 1426.58 523.36 1443.38 509.14   A 0.51 0.50 -33.0 0 1 1444.16 509.30   L 1465.51 552.70   Q 1465.83 553.35 1465.31 553.85   C 1424.16 593.75 1369.94 612.76 1312.69 615.59   C 1256.23 618.37 1201.33 606.74 1156.20 573.25   Q 1123.85 549.24 1102.54 512.31   C 1074.79 464.25 1065.97 408.42 1067.04 353.52   C 1068.45 281.28 1089.56 207.92 1145.93 159.80   C 1180.10 130.64 1222.66 114.63 1267.42 110.34   Z"
     id="path12"
     style="fill:#ececec" />
  <path
     fill="#ffffff"
     d="   M 1547.35 509.61   Q 1547.81 508.71 1548.58 509.36   C 1574.52 531.35 1603.68 548.43 1636.11 557.28   Q 1659.64 563.70 1686.24 565.63   Q 1710.18 567.37 1732.71 565.72   C 1777.27 562.45 1826.03 544.20 1834.57 494.30   C 1838.19 473.16 1835.33 452.41 1819.45 437.14   C 1805.63 423.85 1788.27 416.03 1769.72 410.11   C 1741.22 401.02 1712.48 395.01 1684.27 387.84   Q 1656.55 380.80 1628.07 370.71   C 1598.34 360.17 1572.13 344.36 1553.84 319.91   C 1541.18 302.99 1535.37 281.31 1534.55 259.79   C 1534.29 252.92 1534.31 245.60 1534.97 238.70   C 1539.89 187.73 1569.98 150.06 1615.74 128.68   C 1640.60 117.06 1668.39 111.11 1696.22 109.50   C 1764.63 105.55 1836.71 122.91 1886.66 171.35   A 0.39 0.37 35.8 0 1 1886.74 171.80   L 1865.11 215.77   A 0.37 0.37 0.0 0 1 1864.53 215.89   Q 1845.08 198.93 1822.91 186.12   C 1786.52 165.08 1746.24 156.94 1703.54 158.67   C 1653.87 160.67 1599.69 181.21 1592.96 238.03   C 1589.83 264.56 1596.45 289.07 1619.03 305.01   Q 1625.16 309.34 1632.04 312.91   C 1654.13 324.37 1679.43 332.05 1704.02 337.80   Q 1752.53 349.16 1795.64 362.73   Q 1807.89 366.59 1819.42 371.47   Q 1846.00 382.70 1866.16 402.73   C 1879.64 416.13 1887.96 431.97 1891.51 450.74   Q 1895.02 469.34 1893.21 489.32   Q 1888.08 546.05 1841.44 580.33   Q 1827.57 590.53 1809.49 598.15   C 1780.90 610.21 1749.75 615.28 1718.64 615.89   C 1647.87 617.26 1578.78 601.17 1525.51 553.70   A 0.64 0.64 0.0 0 1 1525.37 552.93   L 1547.35 509.61   Z"
     id="path13"
     style="fill:#ececec" />
  <path
     fill="#ffffff"
     d="   M 545.87 437.81   Q 545.50 436.19 545.01 437.78   C 532.68 477.62 509.00 513.37 478.75 542.16   Q 437.37 581.55 385.02 600.08   Q 382.06 601.13 381.21 598.14   Q 375.04 576.32 368.80 554.72   Q 367.58 550.51 371.74 548.92   Q 416.19 531.88 449.42 497.37   C 479.01 466.65 499.05 425.22 503.97 382.31   C 510.80 322.78 491.16 261.64 448.03 219.38   Q 444.73 216.15 447.62 212.70   Q 461.47 196.19 476.14 177.35   Q 478.08 174.87 480.25 176.98   C 491.01 187.40 500.96 198.50 509.80 210.71   Q 559.77 279.71 557.72 367.22   Q 557.52 376.11 556.42 384.46   Q 555.81 389.14 558.93 385.60   C 572.00 370.82 590.78 361.68 610.67 362.85   C 628.83 363.91 646.07 372.65 656.98 387.19   Q 671.80 406.94 669.84 432.94   C 667.59 462.70 641.84 487.51 611.94 489.30   C 579.13 491.27 553.13 469.26 545.87 437.81   Z"
     id="path15"
     style="fill:#ececec" />
  <path
     fill="#ffffff"
     d="   M 87.42 511.19   Q 80.26 500.61 74.58 491.32   C 42.92 439.46 31.91 379.23 41.55 318.98   C 41.92 316.62 44.03 316.00 46.08 316.40   Q 67.49 320.51 88.67 323.79   Q 93.53 324.54 92.68 329.64   C 80.60 402.29 111.28 476.10 169.50 520.53   C 205.62 548.10 251.23 562.50 296.09 563.06   C 308.35 563.22 320.04 561.95 331.77 559.74   C 333.84 559.36 335.45 560.37 335.98 562.32   Q 342.57 586.50 348.47 606.47   Q 349.38 609.55 346.39 610.13   C 333.07 612.71 320.10 614.34 308.01 614.86   Q 295.59 615.40 278.28 614.25   C 222.58 610.55 169.53 588.86 127.10 552.88   Q 125.82 551.79 124.38 550.98   A 0.50 0.50 0.0 0 0 123.64 551.53   Q 126.75 565.40 125.83 578.04   C 123.83 605.40 100.26 629.65 73.33 633.25   C 71.09 633.55 69.08 635.19 67.00 635.23   Q 63.54 635.29 59.80 635.21   A 1.98 1.95 -24.4 0 1 58.63 634.78   C 56.11 632.74 52.64 633.41 49.64 632.68   C 18.86 625.24 -2.40 596.09 1.11 564.23   C 4.52 533.31 27.68 510.88 58.37 507.56   C 68.35 506.49 77.55 509.00 87.00 511.77   Q 88.02 512.07 87.42 511.19   Z"
     id="path17"
     style="fill:#ececec" />
  <path
     d="m 2233.0551,608.64062 h -193.4347 v -50.00354 h 64.1493 V 168.8068 h -64.1493 v -50.00355 h 193.4347 v 50.00355 h -64.1492 v 389.83028 h 64.1492 z"
     id="text17"
     style="font-size:673.732px;font-family:KufiStandardGK;-inkscape-font-specification:KufiStandardGK;fill:#ececec;stroke-width:3.50902"
     aria-label="I" />
  <text
     xml:space="preserve"
     id="text18"
     style="fill:#f9f9f9;font-size:192px;-inkscape-font-specification:KufiStandardGK;font-family:KufiStandardGK;white-space:pre;shape-inside:url(#rect18)" />
  <text
     xml:space="preserve"
     id="text19"
     style="fill:#f9f9f9;font-size:192px;-inkscape-font-specification:KufiStandardGK;font-family:KufiStandardGK;white-space:pre;shape-inside:url(#rect19)" />
</svg>
